X: 3
T: Serberijanozka 1 [Am]
C:
R: polka
Z: 2012 John Chambers <jc:trillian.mit.edu>
M: 2/4
L: 1/16
K: Am
"A"\
|:\
"Dm"g2f2 fefg | "Am"f2e2 e^def | "E7"e2d2 d^cde | "Am"d2c2 c4 |\
"Dm"c2B2 A2c2 | "Am"B2 A4 A2 | "E7"A2^G2 ^F2G2 | "Am"A4 A4 ||
"B"||\
"Dm"d4 f4 | "Am"e4 [f4A4] | "E7"^G4 B4 | "Am"A4 B2c2 |\
"Dm"d4 f4 | "Am"e4 a4 | "E7"a2^g2 =f2g2 | "Am"a4 a4 :|

